src/svg/th-large-outline.svg

<svg version="1.2" baseProfile="tiny" xmlns="http://www.w3.org/2000/svg" width="24" height="24" viewBox="0 0 24 24"><path d="M9 2h-5c-1.103 0-2 .896-2 2v5c0 1.104.897 2 2 2h5c1.103 0 2-.896 2-2v-5c0-1.104-.897-2-2-2zm0 7h-5v-5h5v5zM20 2h-5c-1.104 0-2 .896-2 2v5c0 1.104.896 2 2 2h5c1.104 0 2-.896 2-2v-5c0-1.104-.896-2-2-2zm0 7h-5v-5h5v5zM9 13h-5c-1.103 0-2 .896-2 2v5c0 1.104.897 2 2 2h5c1.103 0 2-.896 2-2v-5c0-1.104-.897-2-2-2zm0 7h-5v-5h5v5zM20 13h-5c-1.104 0-2 .896-2 2v5c0 1.104.896 2 2 2h5c1.104 0 2-.896 2-2v-5c0-1.104-.896-2-2-2zm0 7h-5v-5h5v5z"/></svg>

<?xml version="1.0" encoding="iso-8859-1"?>
<!-- Generator: Adobe Illustrator 16.2.1, SVG Export Plug-In . SVG Version: 6.00 Build 0)  -->
<svg version="1.2" baseProfile="tiny" id="Layer_1" xmlns="http://www.w3.org/2000/svg" xmlns:xlink="http://www.w3.org/1999/xlink"
	 x="0px" y="0px" width="24px" height="24px" viewBox="0 0 24 24" xml:space="preserve">
<g>
	<path d="M9,2H4C2.897,2,2,2.896,2,4v5c0,1.104,0.897,2,2,2h5c1.103,0,2-0.896,2-2V4C11,2.896,10.103,2,9,2z M9,9H4V4h5V9z"/>
	<path d="M20,2h-5c-1.104,0-2,0.896-2,2v5c0,1.104,0.896,2,2,2h5c1.104,0,2-0.896,2-2V4C22,2.896,21.104,2,20,2z M20,9h-5V4h5V9z"/>
	<path d="M9,13H4c-1.103,0-2,0.896-2,2v5c0,1.104,0.897,2,2,2h5c1.103,0,2-0.896,2-2v-5C11,13.896,10.103,13,9,13z M9,20H4v-5h5V20z
		"/>
	<path d="M20,13h-5c-1.104,0-2,0.896-2,2v5c0,1.104,0.896,2,2,2h5c1.104,0,2-0.896,2-2v-5C22,13.896,21.104,13,20,13z M20,20h-5v-5
		h5V20z"/>
</g>
</svg>
